X: 64
T:The Swallow's Tail
% Nottingham Music Database
S:via PR
M:4/4
L:1/4
K:G
g/2f/2|"Am"e/2A/2(3A/2A/2A/2 e/2A/2c/2A/2|"Em"B/2d/2e/2f/2 "D7"g/2e/2d/2B/2|\
"G"GB/2G/2 d/2G/2B/2G/2|"G"B/2d/2e/2f/2 "Em"gf/2g/2|
"Am"e/2A/2(3A/2A/2A/2 e/2f/2e/2d/2|"A"^c/2d/2e/2f/2 "Em"g/2f/2g/2b/2|\
"D7"a/2f/2g/2e/2 "G"d/2B/2G/2B/2|"Em"A/2c/2B/2G/2 "Am"A::
B/2d/2|"Am"e/2a/2a/2g/2 a/2b/2a/2g/2|"D7"e/2d/2e/2f/2 "G"g/2e/2d/2B/2|\
"G"GB/2G/2 d/2G/2B/2G/2|"G"B/2d/2e/2f/2 "Em"gf/2g/2|
"Am"a/2g/2a/2b/2 "Em"a/2g/2e/2d/2|"A"^c/2d/2e/2f/2 "Em"g/2f/2g/2b/2|\
"D"a/2f/2g/2e/2 "G"d/2B/2G/2B/2|"Em"A/2c/2B/2G/2 "Am"A:|


